X: 1
T: Poor But Happy At 53
R: reel
M: 4/4
L: 1/8
K: Emin
|:EFGA BE E2|BcAc BE E2|DEFG AD D2|ABGB AFGF|
EFGA Be ^df|edBG ABGA|BGDB AFDF|GAFG E2-ED:|
|:edBA Bdef|g2 eg fd Bd|e2-ef g2-ga|gfed e2 ef|
gefd edBA|BGGF GFED|BGDB AFDF|GAFG E4:|


Tune 314	Setting 24882

